X:1
T:Title
%%score 1 { 2 | 3 }
L:1/8
Q:1/4=95
M:4/4
K:D
V:1 treble nm="Grand Piano, Soprano"
V:2 treble nm="Choir Pad, Close to Us All"
V:3 bass 
V:1
 [FA]2 [FA][FA] [DF]2 [EG][FA] | [GB]2 [FA]>[FA] [EA]4 | [Gc]3 [Ge] [Fd]3 [FA] | %3
w: By~William~M.~Hays * * * * *|||
 [FA]2 [FA][FA] [DF]2 [EG][FA] | [GB]2 [FA]>[FA] [EA]4 | [Ec]3 [Fd] [Ge]2 [Gc]2 | [Fd]6 z2 | %7
w: ||||
 [EG]2 [EG][EG] [DF]2 [CE]2 | [DF]2 [EG]2 [FA]4 | [GB]2 [GB][Ad] [Ac]2 [^GB]2 | %10
w: |||
 [EA]2 [E^G]2 [EA]4 | [FA]2 [FA][FA] [DF]2 [EG][FA] | [GB]2 [FA]>[FA] [EA]4 | %13
w: |||
 [Ec]2 [Ge][Ge] [Fd]4- | [Fd]4 z4 |] %15
w: ||
V:2
 D2 DD A,2 B,C | D2 D>D C4 | E3 C D3 D | D2 DD A,2 B,C | D2 D>D C4 | A,3 A, A,2 A,2 | A,6 z2 | %7
 A,2 A,A, A,2 A,2 | A,2 A,2[K:treble] D4 | D2 DD E2 D2 | C2 B,2 C4 | D2 DD A,2 B,C | D2 D>D C4 | %13
 A,2 A,A, A,4- | A,4 z4 |] %15
V:3
 D,2 D,D, D,2 D,D, | D,2 D,>D, A,,4 | A,3 A, D,3 D, | D,2 D,D, D,2 D,D, | D,2 D,>D, A,,4 | z8 | %6
 D,6 z2 | z8 | D,2 D,2 D,4 | G,2 G,G, E,2 E,2 | E,2 E,2 A,4 | D,2 D,D, D,2 D,D, | D,2 D,>D, A,4 | %13
 z4 D,4- | D,4 z4 |] %15

